packages/ui/assets/svg/partner_rivex.svg

<svg class="partner-size" width="59" height="50" viewBox="0 0 59 50" fill="none" xmlns="http://www.w3.org/2000/svg">
<g id="partner_rivex" clip-path="url(#clip0_205_141)">
<g id="layer1">
<g id="g10034">
<path id="path9703" d="M38.1723 0V0.348429H58.6261V44.9424H58.9737V0H38.1723ZM0 0.000692052V17.3649V34.7291H3.14065H6.28129V20.4993V6.26959H16.9812H27.681L29.1498 7.12508C31.076 8.24777 31.7554 9.71708 31.7554 12.7561C31.7554 15.7813 30.7579 17.9587 28.9637 18.8501C27.8988 19.3791 26.6249 19.457 19.0211 19.4575L10.3005 19.4581L18.1466 27.2678C22.4622 31.5632 26.1181 35.0359 26.2709 34.9853C26.4236 34.9347 27.4459 34.0469 28.5418 33.0127L30.5341 31.133L27.5945 28.1585L24.6542 25.1847L26.641 24.936C32.6872 24.1795 35.8161 21.7467 37.396 16.5733C39.2038 10.6539 36.4295 3.43324 31.4569 1.11453L29.4872 0.196043L14.7436 0.0985213L0 0.000692052ZM49.138 14.9225L41.0574 22.7112C36.6131 26.995 28.5014 34.8795 23.0314 40.232L13.086 49.9634L17.292 49.981L21.4979 49.9987L28.627 42.8804L35.7555 35.7622L42.9188 42.8804L50.082 49.9987H54.5285C56.9739 49.9987 58.9744 49.8823 58.9744 49.7404C58.9744 49.5985 54.8546 45.3826 49.8189 40.3716L40.6628 31.2611L48.8061 23.1898L56.9494 15.1185L53.0434 15.0194L49.138 14.9225ZM0.00136266 36.3756V50H11.4673V49.6516H0.34896V36.3756H0.00136266Z" fill="url(#paint0_linear_205_141)"></path>
</g>
</g>
</g>
<defs>
<linearGradient id="paint0_linear_205_141" x1="0.00015377" y1="0.000546823" x2="58.9331" y2="50.652" gradientUnits="userSpaceOnUse">
<stop stop-color="#36FAFA"></stop>
<stop offset="0.5" stop-color="#8A5AFC"></stop>
<stop offset="1" stop-color="#19192A" stop-opacity="0.976471"></stop>
</linearGradient>
<clipPath id="clip0_205_141">
<rect width="58.9744" height="50" fill="white"></rect>
</clipPath>
</defs>
</svg>

<svg class="partner-size" width="59" height="50" viewBox="0 0 59 50" fill="none" xmlns="http://www.w3.org/2000/svg"><g clip-path="url(#clip0_205_141)"><path d="M38.172 0v.348h20.454v44.594h.348V0H38.172ZM0 0V34.73H6.281V6.27h21.4l1.469.856c1.926 1.123 2.605 2.592 2.605 5.631 0 3.025-.997 5.203-2.791 6.094-1.065.53-2.34.607-9.943.607l-8.72.001 7.846 7.81c4.315 4.295 7.971 7.768 8.124 7.717.153-.05 1.175-.938 2.27-1.972l1.993-1.88-2.94-2.974-2.94-2.974 1.987-.249c6.046-.756 9.175-3.19 10.755-8.363 1.808-5.92-.967-13.14-5.94-15.458L29.488.196 14.744.099 0 0Zm49.138 14.922-8.08 7.79a4086.204 4086.204 0 0 0-18.027 17.52l-9.945 9.731 4.206.018 4.206.018 7.129-7.119 7.128-7.118 7.164 7.118L50.082 50h4.447c2.445 0 4.445-.117 4.445-.259 0-.142-4.12-4.357-9.155-9.368l-9.156-9.11 8.143-8.072 8.143-8.072-3.906-.099-3.905-.097ZM.001 36.377V50h11.466v-.348H.35V36.376H.001Z" fill="url(#paint0_linear_205_141)"/></g><defs><linearGradient id="paint0_linear_205_141" x1="0" y1=".001" x2="58.933" y2="50.652" gradientUnits="userSpaceOnUse"><stop stop-color="#36FAFA"/><stop offset=".5" stop-color="#8A5AFC"/><stop offset="1" stop-color="#19192A" stop-opacity=".976"/></linearGradient><clipPath id="#clip0_205_141"><path fill="#fff" d="M0 0h58.974v50H0z"/></clipPath></defs></svg>
